!!!!SEGMENT: pl-kk--kk-i-15--002_anonim--o-admirabile-commercium.krn
!!!cenid: 16xx:1119
!!!COM: Anonim
!!!COM-rismID: pe30004985
!!!CDT:
!!!CNT:
!!!OTL: O admirabile commercium
!!!PDT:
!!!AGN: Sacred
!!!YEC: Copyright 2022 Narodowy Instytut Fryderyka Chopina (https://polishscores.org)
!!!YEM: License CC-BY-4.0 (https://creativecommons.org/licenses/by/4.0)
!!!SMS-siglum: PL-Kk
!!!SMS-shelfmark: Kk.I.15
!!!SMS-shelfwork: 002 W
!!!SMS-variant:
!!!SMS-altvar:
!!!NIFC-rismSourceID: 1001146379
!!!NIFC-rismChildID: 1001146423
!!!NIFC-islandoraID: pl-kk:2631
!!!URL-pdf-islandora: https://repozytorium.nifc.pl/islandora/object/pl-kk%3A2631/datastream/PDF/view
!!!URL-scan: https://polish.musicsources.pl/pl/lokalizacje/galeria/rekopisy/5777 @EN{Scan on Polish Music Sources Website} @PL{Skany w portalu Dziedzictwo Muzyki Polskiej w otwartym dostępie}
!!!IIIF:
!!!ONB-nifc: UWAGA: C (skan 0002-0003), A (skan 0020-0021), T (skan 0037-0038), B (skan 0055-0056). Następny motet: O altitudo divitiarum
!!!AIN: 1 alto 1 empty 1 tenor 1 vox
!!!key:
**kern	**text	**kern	**text	**kern	**text	**kern	**text
*part4	*	*part3	*	*part2	*	*part1	*
*staff4	*	*staff3	*	*staff2	*	*staff1	*
*Iempty	*	*Itenor	*	*Ialto	*	*Ivox	*
*I"Baſso	*	*I"Tenore.	*	*I"Alto	*	*I"Canto.	*
*I'B	*	*I'T	*	*I'A	*	*I'S	*
*clefF4	*	*clefC4	*	*clefC4	*	*clefC2	*
*k[b-]	*	*k[b-]	*	*k[b-]	*	*k[b-]	*
*F:	*	*F:	*	*F:	*	*F:	*
*M2/1	*	*M2/1	*	*M2/1	*	*M2/1	*
*met(C|)	*	*met(C|)	*	*met(C|)	*	*met(C|)	*
=1-	=1-	=1-	=1-	=1-	=1-	=1-	=1-
!LO:TX:t=P:problem=kreska pseudotaktowa	!	!	!	!	!	!LO:TX:a:t=P:problem=znaki B- b-	!
00r	.	00r	.	2.F/	O	0f	O
!	!	!	!	!LO:TX:t=P:problem=kreska pseudotaktowa	!	!	!
.	.	.	.	4G/	.	.	.
.	.	.	.	2A/	.	.	.
.	.	.	.	2.B-/	.	.	.
=2-	=2-	=2-	=2-	=2-	=2-	=2-	=2-
.	.	.	.	.	.	0d	.
.	.	.	.	4F/	.	.	.
*	*	*	*	*custos:A	*	*	*
.	.	.	.	1B-	.	.	.
!	!	!	!	!LO:LB:g=original	!	!	!
.	.	.	.	4A\	.	.	.
!	!	!	!	!LO:TX:t=P:problem=kreska pseudotaktowa	!	!	!
.	.	.	.	4G\	.	.	.
=3-	=3-	=3-	=3-	=3-	=3-	=3-	=3-
!LO:TX:a:t=4	!	!	!	!LO:TX:t=P:problem=kreska pseudotaktowa	!	!	!
00F	O	00r	.	1A	.	0c	.
.	.	.	.	2r	.	.	.
.	.	.	.	1A\	ad-	.	.
=4-	=4-	=4-	=4-	=4-	=4-	=4-	=4-
!	!	!	!	!	!	!LO:TX:t=P:problem=kreska pseudotaktowa	!
.	.	.	.	.	.	0.f	ad-
!	!	!	!	!LO:TX:t=P:problem=kreska pseudotaktowa	!	!	!
.	.	.	.	2B-/	-mi-	.	.
.	.	.	.	2A/	.	.	.
.	.	.	.	2.B-/	.	.	.
=5-	=5-	=5-	=5-	=5-	=5-	=5-	=5-
!LO:TX:t=P:problem=kreska pseudotaktowa	!	!LO:TX:t=P:problem=kreska pseudotaktowa	!	!	!	!	!
0D	.	00r	.	.	.	.	.
.	.	.	.	4A/	.	.	.
.	.	.	.	1A	.	.	.
.	.	.	.	.	.	1f	-mi-
.	.	.	.	4G/	.	.	.
!	!	!	!	!LO:TX:t=P:problem=kreska pseudotaktowa	!	!	!
.	.	.	.	4F/	.	.	.
=6-	=6-	=6-	=6-	=6-	=6-	=6-	=6-
0C	.	.	.	2E/	.	0g	-ra-
.	.	.	.	1F	.	.	.
.	.	.	.	2E/	.	.	.
=7-	=7-	=7-	=7-	=7-	=7-	=7-	=7-
!LO:TX:t=P:problem=kreska pseudotaktowa	!	!LO:TX:a:t=4	!	!	!	!	!
*	*	*	*	*lig	*	*	*
0FF	.	00F\	O	1F	-ra	1.a	.
!	!	!	!	!LO:TX:t=P:problem=kreska pseudotaktowa	!	!	!
.	.	.	.	1A	.	.	.
!	!	!	!	!	!	!LO:TX:t=P::problem=kreska pseudotaktowa&colon;między nutą a kropką	!
.	.	.	.	.	.	2.f\	.
*	*	*	*	*Xlig	*	*	*
=8-	=8-	=8-	=8-	=8-	=8-	=8-	=8-
1F	ad-	.	.	2B-\	.	.	.
.	.	.	.	.	.	4g\	.
.	.	.	.	1c	bi-	2a\	.
1F	-mi-	.	.	.	.	1d	-bi-
!	!	!	!	!LO:TX:t=P:problem=kreska pseudotaktowa	!	!	!
.	.	.	.	2B-\	-le	.	.
=9-	=9-	=9-	=9-	=9-	=9-	=9-	=9-
!LO:TX:t=P:problem=kreska pseudotaktowa	!	!	!	!	!	!LO:TX:t=P:problem=kreska pseudotaktowa	!
0.G	-ra-	0D	.	1.c	.	1e	-le
.	.	.	.	.	.	2r	.
!	!	!	!	!LO:TX:t=P:problem=kreska pseudotaktowa	!	!	!
.	.	.	.	2C/	com-	1g\	com-
=10-	=10-	=10-	=10-	=10-	=10-	=10-	=10-
!	!	!LO:TX:t=P:problem=kreska pseudotaktowa	!	!	!	!	!
.	.	0C	.	2.E/	-mer-	.	.
.	.	.	.	.	.	2.e\	-mer-
.	.	.	.	4F/	.	.	.
1G	-bi-	.	.	2G/	.	.	.
.	.	.	.	.	.	4f\	.
!	!	!	!	!LO:TX:t=P:problem=kreska pseudotaktowa	!	!LO:TX:t=P:problem=kreska pseudotaktowa	!
.	.	.	.	2E/	.	2g\	.
=11-	=11-	=11-	=11-	=11-	=11-	=11-	=11-
1.A	-le	0F	ad-	1.F	.	1.c	.
2.F\	com-	.	.	2.A/	.	2c/	-ci-
=12-	=12-	=12-	=12-	=12-	=12-	=12-	=12-
!	!	!	!	!	!	!LO:TX:t=P:problem=kreska pseudotaktowa	!
.	.	0F	-mi-	.	.	1c	-um
4G\	.	.	.	4B-\	.	.	.
!LO:TX:t=P:problem=kreska pseudotaktowa	!	!	!	!LO:TX:t=P:problem=kreska pseudotaktowa	!	!	!
2A\	.	.	.	2c\	.	.	.
*	*	*	*	*custos:B-	*	*	*
1.D	-mer-	.	.	2A/	.	2rd	.
*	*	*	*	*	*	*	*ij
!	!	!	!	!LO:LB:g=original	!	!	!
!	!	!	!	!LO:TX:t=P:problem=kreska pseudotaktowa	!	!	!
.	.	.	.	2B-\	.	1f\	com-
=13-	=13-	=13-	=13-	=13-	=13-	=13-	=13-
.	.	0F	-ra-	2A/	.	.	.
!	!	!	!	!	!	!LO:LB:g=original	!
!	!	!	!	!	!	!LO:TX:t=P::problem=kreska pseudotaktowa&colon;między nutą a kropką	!
2.BB-/	.	.	.	1B-	.	2.d/	-mer-
4C/	.	.	.	.	.	4e\	.
!LO:TX:t=P:problem=kreska pseudotaktowa	!	!	!	!LO:TX:t=P:problem=kreska pseudotaktowa	!	!LO:TX:t=P:problem=kreska pseudotaktowa	!
2D/	.	.	.	2A/	.	2f\	.
=14-	=14-	=14-	=14-	=14-	=14-	=14-	=14-
!	!	!LO:TX:t=P:problem=kreska pseudotaktowa	!	!	!	!	!
2.GG/	.	0.G	.	2G/	.	2e/	.
.	.	.	.	4F/	.	1d	.
4AA/	.	.	.	4E/	.	.	.
2BB-/	.	.	.	2D/	-ci-	.	.
!	!	!	!	!LO:TX:t=P:problem=kreska pseudotaktowa	!	!	!
1C/	.	.	.	2E/	-um	2c/	.
=15-	=15-	=15-	=15-	=15-	=15-	=15-	=15-
*	*	*	*	*	*	*lig	*
.	.	.	.	1D	.	1d	-ci-
2BB-/	.	.	.	.	.	.	.
!LO:TX:t=P:problem=kreska pseudotaktowa	!	!	!	!	!	!LO:TX:t=P:problem=kreska pseudotaktowa	!
1C	.	1G	-bi-	2C/	.	1e	.
.	.	.	.	1c\	.	.	.
*	*	*	*	*	*	*Xlig	*
!LO:LB:g=original	!	!	!	!	!	!	!
=16-	=16-	=16-	=16-	=16-	=16-	=16-	=16-
*lig	*	*	*	*	*	*	*
!	!	!	!	!	!	!LO:TX:t=P:problem=kreska pseudotaktowa	!
1GG	.	1G	-le-	.	.	1d	-um
*	*	*	*	*	*	*	*Xij
!	!	!	!	!LO:TX:t=P:problem=kreska pseudotaktowa	!	!	!
.	.	.	.	2B-\	Cre-	.	.
1C	.	1G	-com-	1c	-a-	2r	.
.	.	.	.	.	.	2.g\	com-
*Xlig	*	*	*	*	*	*	*
=17-	=17-	=17-	=17-	=17-	=17-	=17-	=17-
*lig	*	*	*	*	*	*	*
1BB-	-ci-	0B-	-mer-	0d	-tor	.	.
.	.	.	.	.	.	4f\	.
!	!	!	!	!	!	!LO:TX:t=P::problem=kreska pseudotaktowa&colon;między nutą a kropką	!
.	.	.	.	.	.	2.b-\	-mer-
1GG	.	.	.	.	.	.	.
.	.	.	.	.	.	4a\	.
.	.	.	.	.	.	4g\	.
.	.	.	.	.	.	4f\	.
*Xlig	*	*	*	*	*	*	*
=18-	=18-	=18-	=18-	=18-	=18-	=18-	=18-
!LO:TX:t=P:problem=kreska pseudotaktowa	!	!	!	!LO:TX:t=P:problem=kreska pseudotaktowa	!	!	!
1C	-um	0G	-ci-	1c	.	2e/	.
.	.	.	.	.	.	1f	.
2rC	.	.	.	1.A	.	.	.
!	!	!	!	!	!	!LO:TX:t=P:problem=kreska pseudotaktowa	!
2C/	Cre-	.	.	.	.	2e\	-ci-
=19-	=19-	=19-	=19-	=19-	=19-	=19-	=19-
!	!	!LO:TX:t=P:problem=kreska pseudotaktowa	!	!	!	!LO:TX:t=P:problem=kreska pseudotaktowa	!
2.D/	-a-	0F	-um	.	.	1f	-(um)
.	.	.	.	1B-	.	.	.
!LO:TX:t=P:problem=kreska pseudotaktowa	!	!	!	!	!	!	!
4C/	.	.	.	.	.	.	.
4D/	.	.	.	.	.	1r	.
4E/	.	.	.	.	.	.	.
1F\	.	.	.	4A/	.	.	.
!	!	!	!	!LO:TX:t=P:problem=kreska pseudotaktowa	!	!	!
.	.	.	.	4G/	.	.	.
=20-	=20-	=20-	=20-	=20-	=20-	=20-	=20-
.	.	1rF	.	4A/	.	1c	Cre-
.	.	.	.	4G/	.	.	.
!LO:TX:t=P:problem=kreska pseudotaktowa	!	!	!	!	!	!	!
2E\	.	.	.	1c	.	.	.
*	*	*	*	*	*	*lig	*
1D	.	1F	cre-	.	.	1d	-a-
!	!	!	!	!LO:TX:t=P:problem=kreska pseudotaktowa	!	!	!
.	.	.	.	2B-\	.	.	.
=21-	=21-	=21-	=21-	=21-	=21-	=21-	=21-
!LO:TX:t=P:problem=kreska pseudotaktowa	!	!	!	!	!	!	!
*	*	*lig	*	*	*	*	*
1C	-tor	1G	-a-	1.c	.	1e	.
*	*ij	*	*	*	*	*Xlig	*
!	!	!	!	!	!	!LO:TX:t=P:problem=kreska pseudotaktowa	!
2r	.	1A	.	.	.	1c	-tor
1F\	Cre-	.	.	1A\	.	.	.
*	*	*Xlig	*	*	*	*	*
=22-	=22-	=22-	=22-	=22-	=22-	=22-	=22-
!	!	!LO:TX:t=P:problem=kreska pseudotaktowa	!	!	!	!	!
.	-a-	1F	-tor	.	.	1r	.
4E\	.	.	.	4G/	.	.	.
!LO:TX:t=P:problem=kreska pseudotaktowa	!	!	!	!LO:TX:t=P:problem=kreska pseudotaktowa	!	!	!
4D\	.	.	.	4F/	.	.	.
2E\	-a-	1rF	.	2G/	cre-	1g	ge-
!LO:TX:t=P:problem=kreska pseudotaktowa	!	!	!	!	!	!	!
2C/	-tor	.	.	1c\	.	.	.
*	*Xij	*	*	*	*	*	*
!	!	!LO:LB:g=original	!	!	!	!	!
=23-	=23-	=23-	=23-	=23-	=23-	=23-	=23-
2rC	.	1G	ge-	.	.	1e	-ne-
1C	ge-	.	.	4B-\	.	.	.
*	*	*	*	*custos:G	*	*	*
!	!	!	!	!LO:TX:t=P:problem=kreska pseudotaktowa	!	!	!
.	.	.	.	4A\	.	.	.
!	!	!	!	!LO:LB:g=original	!	!	!
.	.	1E	-ne-	2.G/	-a-	1g	-ris
4BB-/	.	.	.	.	.	.	.
!LO:TX:t=P:problem=kreska pseudotaktowa	!	!	!	!LO:TX:t=P:problem=kreska pseudotaktowa	!	!	!
4AA/	.	.	.	4A/	.	.	.
!	!	!	!	!	!	!LO:LB:g=original	!
=24-	=24-	=24-	=24-	=24-	=24-	=24-	=24-
!	!	!LO:TX:t=P:problem=kreska pseudotaktowa	!	!	!	!	!
2.GG/	.	1G	-ris	2B-/	.	2g\	.
.	.	.	.	2.G/	-tor	4f\	.
!	!	!	!	!	!	!LO:TX:t=P:problem=kreska pseudotaktowa	!
4AA/	-ne-	.	.	.	.	4e\	.
*	*	*lig	*	*	*	*	*
1BB-	-ris	1G	hu-	.	.	1d	.
.	.	.	.	4F/	.	.	.
!	!	!	!	!LO:TX:t=P:problem=kreska pseudotaktowa	!	!	!
.	.	.	.	2D/	.	.	.
=25-	=25-	=25-	=25-	=25-	=25-	=25-	=25-
!LO:TX:t=P:problem=kreska pseudotaktowa	!	!	!	!	!	!	!
1AA	.	1A	.	2.E/	.	2.c/	hu-
!	!	!	!	!LO:TX:t=P:problem=kreska pseudotaktowa	!	!LO:TX:t=P:problem=kreska pseudotaktowa	!
.	.	.	.	4F/	.	4d/	.
*	*	*Xlig	*	*	*	*	*
2GG/	.	2B-\	-ma-	4G/	.	2e/	-ma-
.	.	.	.	4C/	.	.	.
2FF/	.	1A\	.	1c\	ge-	2f/	.
=26-	=26-	=26-	=26-	=26-	=26-	=26-	=26-
2AA/	hu-	.	.	.	.	2c/	.
!	!	!	!	!LO:TX:t=P:problem=kreska pseudotaktowa	!	!	!
2D/	-ma-	4G/	.	2B-\	-ne-	1f	.
!	!	!LO:TX:t=P:problem=kreska pseudotaktowa	!	!	!	!	!
.	.	4F/	.	.	.	.	.
!LO:TX:t=P:problem=kreska pseudotaktowa	!	!	!	!	!	!	!
1C	-ni	1G	.	1c	-ris	.	.
!	!	!	!	!	!	!LO:TX:t=P:problem=kreska pseudotaktowa	!
.	.	.	.	.	.	2e/	.
!LO:LB:g=original	!	!	!	!	!	!	!
=27-	=27-	=27-	=27-	=27-	=27-	=27-	=27-
*	*ij	*	*	*lig	*	*	*
!	!	!	!	!	!	!LO:TX:t=P:problem=kreska pseudotaktowa	!
2rC	.	1.F	.	1A	hu-	1f	-ni
1D	ge-	.	.	.	.	.	.
!	!	!	!	!LO:TX:t=P:problem=kreska pseudotaktowa	!	!	!
.	.	.	.	1d	.	1r	.
!	!	!LO:TX:t=P:problem=kreska pseudotaktowa	!	!	!	!	!
4C/	.	2G/	.	.	.	.	.
!LO:TX:t=P:problem=kreska pseudotaktowa	!	!	!	!	!	!	!
4BB-/	.	.	.	.	.	.	.
*	*	*	*	*Xlig	*	*	*
=28-	=28-	=28-	=28-	=28-	=28-	=28-	=28-
2AA/	.	2A/	.	2c\	-ma-	1f	a-
1BB-	-ne-	1D	.	1d	.	.	.
!	!	!	!	!	!	!LO:TX:t=P:problem=kreska pseudotaktowa	!
.	.	.	.	.	.	1f	-ni-
!	!	!LO:TX:t=P:problem=kreska pseudotaktowa	!	!	!	!	!
4AA/	.	2E/	.	4c\	.	.	.
!LO:TX:t=P:problem=kreska pseudotaktowa	!	!	!	!LO:TX:t=P:problem=kreska pseudotaktowa	!	!	!
4GG/	.	.	.	4B-\	.	.	.
=29-	=29-	=29-	=29-	=29-	=29-	=29-	=29-
*	*	*	*	*	*	*lig	*
2FF/	-ris	2F/	.	2A/	-ni	1a	-ma-
2AA/	hu-	2C/	.	2c\	hu-	.	.
1GG	-ma-	2.D/	.	2B-\	-ma-	1b-	.
!	!	!	!	!LO:TX:t=P:problem=kreska pseudotaktowa	!	!	!
.	.	.	.	2G/	.	.	.
!	!	!LO:TX:t=P:problem=kreska pseudotaktowa	!	!	!	!	!
.	.	4E/	.	.	.	.	.
*	*	*	*	*	*	*Xlig	*
=30-	=30-	=30-	=30-	=30-	=30-	=30-	=30-
!LO:TX:t=P:problem=kreska pseudotaktowa	!	!	!	!	!	!	!
*	*	*	*	*	*	*lig	*
1FF	.	1F	.	2A/	.	1a	-tur
.	.	.	.	2.c\	.	.	.
*lig	*	*	*	*	*	*	*
!	!	!	!	!	!	!LO:TX:t=P:problem=kreska pseudotaktowa	!
1C	-ni	1E	.	.	.	1g	.
*	*Xij	*	*	*	*	*	*
.	.	.	.	4B-\	.	.	.
.	.	.	.	2c\	-ni	.	.
!	!	!	!	!LO:TX:t=P:problem=kreska pseudotaktowa	!	!	!
*	*	*	*	*	*	*Xlig	*
=31-	=31-	=31-	=31-	=31-	=31-	=31-	=31-
*	*	*	*	*	*ij	*	*
!LO:TX:t=P:problem=kreska pseudotaktowa	!	!	!	!	!	!	!
1GG	.	2.G/	.	1.d	hu-	1b-	Cor-
!	!	!LO:TX:t=P:problem=kreska pseudotaktowa	!	!	!	!	!
.	.	4F/	.	.	.	.	.
*Xlig	*	*	*	*	*	*	*
2rC	.	2D/	.	.	.	2a\	.
!	!	!	!	!LO:TX:t=P:problem=kreska pseudotaktowa	!	!	!
2C/	hu-	2E/	.	2G/	-ma-	2.g\	-pus
=32-	=32-	=32-	=32-	=32-	=32-	=32-	=32-
2AA/	-ma-	2F/	.	2A/	.	.	.
.	.	.	.	.	.	4f\	.
!LO:TX:t=P:problem=kreska pseudotaktowa	!	!	!	!	!	!	!
2FF/	.	2A\	.	2.c\	.	1f	ſu-
1C	-ni	1G	-ni	.	.	.	.
.	.	.	.	4B-\	.	.	.
!	!	!	!	!LO:TX:t=P:problem=kreska pseudotaktowa	!	!LO:TX:t=P:problem=kreska pseudotaktowa	!
.	.	.	.	2c\	.	2e/	.
!	!	!	!	!LO:LB:g=original	!	!	!
=33-	=33-	=33-	=33-	=33-	=33-	=33-	=33-
!	!	!LO:TX:t=P:problem=kreska pseudotaktowa	!	!	!	!LO:TX:t=P:problem=kreska pseudotaktowa	!
1FF	a-	1F	.	2A/	-ni	00f	-mens
*	*	*	*	*	*Xij	*	*
!	!	!	!	!LO:TX:t=P::problem=kreska pseudotaktowa&colon;między nutą a kropką	!	!	!
.	.	.	.	2.c\	a-	.	.
!LO:TX:t=P:problem=kreska pseudotaktowa	!	!	!	!	!	!	!
1FF	-ni-	1rF	.	.	.	.	.
.	.	.	.	4B-\	.	.	.
.	.	.	.	2.A/	.	.	.
!	!	!LO:LB:g=original	!	!	!	!	!
=34-	=34-	=34-	=34-	=34-	=34-	=34-	=34-
*lig	*	*	*	*	*	*	*
1AA	-ma-	1F	a-	.	.	.	.
.	.	.	.	4G/	.	.	.
.	.	.	.	4F/	.	.	.
!	!	!	!	!LO:TX:t=P:problem=kreska pseudotaktowa	!	!	!
.	.	.	.	4E/	.	.	.
!LO:TX:t=P:problem=kreska pseudotaktowa	!	!LO:TX:t=P:problem=kreska pseudotaktowa	!	!	!	!	!
1BB-	.	1F	-ni-	1D	-ni-	.	.
*Xlig	*	*	*	*	*	*	*
=35-	=35-	=35-	=35-	=35-	=35-	=35-	=35-
*	*	*lig	*	*	*	*	*
2AA/	.	1A	-ma-	2C/	-ma-	00r	.
2FF/	.	.	.	1F	.	.	.
1GG	.	1B-	.	.	.	.	.
!	!	!	!	!LO:TX:t=P:problem=kreska pseudotaktowa	!	!	!
.	.	.	.	2E/	.	.	.
*	*	*Xlig	*	*	*	*	*
=36-	=36-	=36-	=36-	=36-	=36-	=36-	=36-
!LO:TX:t=P:problem=kreska pseudotaktowa	!	!	!	!	!	!	!
1FF	-tum	2A/	.	1F	.	.	.
.	.	2F/	.	.	.	.	.
1rD	.	1G	.	2E/	-t(um)	.	.
!	!	!	!	!LO:TX:t=P:problem=kreska pseudotaktowa	!	!	!
.	.	.	.	2C/	.	.	.
=37-	=37-	=37-	=37-	=37-	=37-	=37-	=37-
!	!	!LO:TX:t=P:problem=kreska pseudotaktowa	!	!	!	!	!
1BB-	Cor-	1F	-tum	1D	cor-	0r	.
!LO:TX:t=P:problem=kreska pseudotaktowa	!	!	!	!	!	!	!
1AA	-p(us)	1rA	.	2C/	.	.	.
.	.	.	.	2.F/	.	.	.
!	!	!	!	!	!	!LO:LB:g=original	!
=38-	=38-	=38-	=38-	=38-	=38-	=38-	=38-
1GG	ſu-	1B-	cor-	.	.	1g	de
.	.	.	.	4E/	.	.	.
.	.	.	.	4D/	.	.	.
!	!	!	!	!LO:TX:t=P:problem=kreska pseudotaktowa	!	!	!
.	.	.	.	4E/	.	.	.
!LO:TX:t=P:problem=kreska pseudotaktowa	!	!LO:TX:t=P:problem=kreska pseudotaktowa	!	!	!	!	!
*	*	*	*	*lig	*	*	*
1FF	-mens	1A	-pus	1F	.	2a\	Vir-
.	.	.	.	.	.	1f\	.
!LO:LB:g=original	!	!	!	!	!	!	!
=39-	=39-	=39-	=39-	=39-	=39-	=39-	=39-
!LO:TX:t=P:problem=kreska pseudotaktowa	!	!	!	!LO:TX:t=P:problem=kreska pseudotaktowa	!	!	!
1rD	.	0G	ſu-	1C	-pus	.	.
.	.	.	.	.	.	4e\	.
!	!	!	!	!	!	!LO:TX:t=P:problem=kreska pseudotaktowa	!
.	.	.	.	.	.	4d\	.
*	*	*	*	*Xlig	*	*	*
!LO:TX:t=P:problem=kreska pseudotaktowa	!	!	!	!	!	!	!
1C	de	.	.	2r	.	1e	-gi-
.	.	.	.	1c\	ſu-	.	.
=40-	=40-	=40-	=40-	=40-	=40-	=40-	=40-
!	!	!LO:TX:t=P:problem=kreska pseudotaktowa	!	!	!	!LO:TX:t=P:problem=kreska pseudotaktowa	!
0D	Vir-	1F	-mens	.	.	1f	-ne
.	.	.	.	4B-\	.	.	.
!	!	!	!	!LO:TX:t=P:problem=kreska pseudotaktowa	!	!	!
.	.	.	.	4A\	.	.	.
.	.	1F	de	1B-	-mens	2r	.
.	.	.	.	.	.	1f\	na-
=41-	=41-	=41-	=41-	=41-	=41-	=41-	=41-
!	!	!	!	!LO:TX:t=P:problem=kreska pseudotaktowa	!	!	!
1C	-gi-	0G	Vir-	0c	.	.	.
.	.	.	.	.	.	4e/	.
!	!	!	!	!	!	!LO:TX:t=P:problem=kreska pseudotaktowa	!
.	.	.	.	.	.	4d/	.
!LO:TX:t=P:problem=kreska pseudotaktowa	!	!	!	!	!	!	!
1C	-ne	.	.	.	.	4e/	.
.	.	.	.	.	.	4d/	.
.	.	.	.	.	.	4c/	.
.	.	.	.	.	.	4B-/	.
=42-	=42-	=42-	=42-	=42-	=42-	=42-	=42-
0D	na-	1F	-gi-	2rF	.	1A	-ſci
.	.	.	.	.	.	.	.
.	.	.	.	2F/	de	.	.
!	!	!LO:TX:t=P:problem=kreska pseudotaktowa	!	!	!	!	!
.	.	1F	-ne	2A\	.	1f	di-
*	*	*	*	*custos:B-	*	*	*
!	!	!	!	!LO:TX:t=P:problem=kreska pseudotaktowa	!	!	!
.	.	.	.	2B-\	.	.	.
!	!	!	!	!LO:PB:g=original	!	!	!
=43-	=43-	=43-	=43-	=43-	=43-	=43-	=43-
!LO:TX:t=P:problem=kreska pseudotaktowa	!	!	!	!LO:TX:t=P:problem=brak źródła-urwana kartka	!	!	!
0C	-ſci	1G	na-	1ryy	.	2e/	.
!	!	!	!	!	!	!LO:TX:t=P::problem=kreska pseudotaktowa&colon;między nutą a kropką	!
.	.	.	.	.	.	2.g\	.
!	!	!LO:TX:t=P:problem=kreska pseudotaktowa	!	!	!	!	!
.	.	1F	-ſci	2ryy	.	.	.
.	.	.	.	.	.	4f\	.
!	!	!	!	!LO:TX:t=P:problem=kreska pseudotaktowa	!	!	!
.	.	.	.	2G/	.	4e\	.
.	.	.	.	.	.	4d\	.
=44-	=44-	=44-	=44-	=44-	=44-	=44-	=44-
1.F	di-	1rA	.	2.A/	.	2c/	.
!	!	!	!	!	!	!LO:TX:t=P:problem=kreska pseudotaktowa	!
.	.	.	.	.	.	2d/	.
.	.	.	.	4B-\	.	.	.
.	.	1F	di-	2A\	.	2c/	.
!	!	!	!	!LO:TX:t=P:problem=kreska pseudotaktowa	!	!	!
2.D/	-gna-	.	.	2d\	.	2.f\	.
=45-	=45-	=45-	=45-	=45-	=45-	=45-	=45-
*	*	*lig	*	*	*	*	*
.	.	1F	-gna-	4d\	.	.	.
4E\	.	.	.	4c\	.	4e\	.
!LO:TX:t=P:problem=kreska pseudotaktowa	!	!	!	!	!	!	!
2F\	.	.	.	4B-\	.	1d	.
.	.	.	.	4A\	.	.	.
1E	.	1G	.	2G/	.	.	.
!	!	!	!	!LO:TX:t=P:problem=kreska pseudotaktowa	!	!LO:TX:t=P:problem=kreska pseudotaktowa	!
.	.	.	.	2E/	.	2c/	.
*	*	*Xlig	*	*	*	*	*
=46-	=46-	=46-	=46-	=46-	=46-	=46-	=46-
*	*	*lig	*	*	*	*	*
!	!	!	!	!	!	!LO:TX:t=P:problem=brak źródła-urwana kartka	!
2.D/	.	1A	.	2F/	.	0ryy	.
.	.	.	.	1D	Vir-	.	.
4C/	.	.	.	.	.	.	.
2BB-/	.	1B-	.	.	.	.	.
!LO:TX:t=P:problem=kreska pseudotaktowa	!	!	!	!	!	!	!
2GG/	.	.	.	1G/	-gi-	.	.
*	*	*Xlig	*	*	*	*	*
=47-	=47-	=47-	=47-	=47-	=47-	=47-	=47-
*	*	*lig	*	*	*	*	*
1D	.	1A	.	.	.	1ryy	.
!	!	!	!	!LO:TX:t=P:problem=kreska pseudotaktowa	!	!	!
.	.	.	.	2F/	-ne	.	.
!	!	!	!	!	!	!LO:LB:g=original	!
2GG/	.	1G	-t[us]	2G/	.	1d	.
!LO:TX:t=P:problem=kreska pseudotaktowa	!	!	!	!	!	!	!
2BB-/	.	.	.	2D/	na-	.	.
*	*	*Xlig	*	*	*	*	*
!	!	!LO:LB:g=original	!	!	!	!	!
=48-	=48-	=48-	=48-	=48-	=48-	=48-	=48-
*	*	*lig	*	*	*	*	*
2AA/	.	1A	eſt	2E/	.	0c	eſt
!LO:TX:t=P:problem=kreska pseudotaktowa	!	!	!	!LO:TX:t=P:problem=kreska pseudotaktowa	!	!	!
2FF/	.	.	.	2F/	.	.	.
!	!	!LO:TX:t=P:problem=kreska pseudotaktowa	!	!	!	!	!
1C	.	1G	.	2.E/	-ſci	.	.
.	.	.	.	4D/	.	.	.
*	*	*Xlig	*	*	*	*	*
=49-	=49-	=49-	=49-	=49-	=49-	=49-	=49-
!	!	!LO:TX:t=P:problem=kreska pseudotaktowa	!	!	!	!	!
2BB-/	-tus	1G	et	2D/	di-	00r	.
!	!	!	!	!LO:TX:t=P:problem=kreska pseudotaktowa	!	!	!
1C	eſt	.	.	2E/	-gna-	.	.
.	.	1G	pro-	2C/	.	.	.
4BB-/	.	.	.	1F/	.	.	.
!LO:TX:t=P:problem=kreska pseudotaktowa	!	!	!	!	!	!	!
4AA/	.	.	.	.	.	.	.
=50-	=50-	=50-	=50-	=50-	=50-	=50-	=50-
*	*	*lig	*	*	*	*	*
1GG	.	1G	-ce-	.	.	.	.
!	!	!	!	!LO:TX:t=P:problem=kreska pseudotaktowa	!	!	!
.	.	.	.	2E/	.	.	.
!LO:TX:t=P:problem=kreska pseudotaktowa	!	!	!	!	!	!	!
1FF	.	1A	.	2.F/	.	.	.
.	.	.	.	4E/	.	.	.
*	*	*Xlig	*	*	*	*	*
=51-	=51-	=51-	=51-	=51-	=51-	=51-	=51-
0r	.	2F/	-denſ	2E/	.	1re	.
!	!	!	!	!LO:TX:t=P:problem=kreska pseudotaktowa	!	!	!
.	.	2.B-\	ho-	2G/	-tus	.	.
!	!	!	!	!LO:LB:g=original	!	!	!
.	.	.	.	4G/	eſt	1g	et
.	.	4A\	.	4F/	.	.	.
.	.	4G/	.	4E/	.	.	.
!	!	!LO:TX:t=P:problem=kreska pseudotaktowa	!	!	!	!	!
.	.	4F/	.	4D/	.	.	.
=52-	=52-	=52-	=52-	=52-	=52-	=52-	=52-
!LO:TX:t=P:problem=kreska pseudotaktowa	!	!	!	!	!	!	!
1r	.	2E/	.	(2C/	.	1g	pro-
!	!	!	!	!LO:TX:t=P:problem=kreska pseudotaktowa	!	!	!
.	.	1F	.	2C/)	.	.	.
!LO:PB:g=original	!	!	!	!	!	!	!
*	*	*	*	*	*	*lig	*
!LO:TX:t=P:problem=kreska pseudotaktowa	!	!	!	!	!	!	!
1C	et	.	.	2r	.	1g	-ce-
!	!	!LO:TX:t=P:problem=kreska pseudotaktowa	!	!	!	!	!
.	.	2E/	.	2.c\	et	.	.
=53-	=53-	=53-	=53-	=53-	=53-	=53-	=53-
*lig	*	*lig	*	*	*	*	*
1F	pro-	1F	.	.	.	1a	.
.	.	.	.	4A\	.	.	.
.	.	.	.	1d	pro-	.	.
*	*	*	*	*	*	*Xlig	*
1E	.	1G	.	.	.	1g	-dens
!	!	!	!	!LO:TX:t=P:problem=kreska pseudotaktowa	!	!	!
.	.	.	.	2c\	-ce-	.	.
*Xlig	*	*Xlig	*	*	*	*	*
=54-	=54-	=54-	=54-	=54-	=54-	=54-	=54-
*	*	*lig	*	*	*	*	*
1D	-ce-	1A	.	0d	.	1.f	.
!LO:TX:t=P:problem=kreska pseudotaktowa	!	!	!	!	!	!	!
1BB-	-dens	1B-	.	.	.	.	.
.	.	.	.	.	.	2.g\	ho-
*	*	*Xlig	*	*	*	*	*
=55-	=55-	=55-	=55-	=55-	=55-	=55-	=55-
0C	ho-	0G	.	0c	.	.	.
.	.	.	.	.	.	4f\	.
.	.	.	.	.	.	1f	.
.	.	.	.	.	.	2e/	.
=56-	=56-	=56-	=56-	=56-	=56-	=56-	=56-
!LO:TX:t=P:problem=kreska pseudotaktowa	!	!LO:TX:t=P:problem=kreska pseudotaktowa	!	!	!	!	!
1FF	-mo	1F	-mo	1A	.	0f	-mo
!	!	!	!	!LO:TX:t=P:problem=kreska pseudotaktowa	!	!	!
2rAA	.	1rF	.	1F	-dens	.	.
1BB-/	ſi-	.	.	.	.	.	.
=57-	=57-	=57-	=57-	=57-	=57-	=57-	=57-
*	*	*lig	*	*	*	*	*
.	.	1F	ſi-	00r	.	0r	.
!LO:TX:t=P:problem=kreska pseudotaktowa	!	!	!	!	!	!	!
2AA/	-ne	.	.	.	.	.	.
2.GG/	ſe-	1E	.	.	.	.	.
4AA/	-mi-	.	.	.	.	.	.
*	*	*Xlig	*	*	*	*	*
=58-	=58-	=58-	=58-	=58-	=58-	=58-	=58-
!LO:TX:t=P:problem=kreska pseudotaktowa	!	!	!	!	!	!	!
*	*	*lig	*	*	*	*	*
0BB-	-ne	1D	-ne	.	.	1re	.
!	!	!LO:TX:t=P:problem=kreska pseudotaktowa	!	!	!	!	!
.	.	1F	.	.	.	2r	.
.	.	.	.	.	.	1f\	ſi-
*	*	*Xlig	*	*	*	*	*
=59-	=59-	=59-	=59-	=59-	=59-	=59-	=59-
*	*	*lig	*	*	*	*	*
!	!	!	!	!LO:TX:t=P:problem=kreska pseudotaktowa	!	!	!
0r	.	1F	ſe-	1r	.	.	.
.	.	.	.	.	.	2e/	-ne
.	.	1G	.	2r	.	2.d/	ſe-
.	.	.	.	1B-\	ſi-	.	.
.	.	.	.	.	.	4e/	-mi-
*	*	*Xlig	*	*	*	*	*
=60-	=60-	=60-	=60-	=60-	=60-	=60-	=60-
*lig	*	*lig	*	*	*	*	*
1F	ſi-	1F	-mi-	.	.	1f	-ne
!	!	!	!	!LO:TX:t=P:problem=kreska pseudotaktowa	!	!	!
.	.	.	.	2A/	-ne	.	.
1G	.	1E	.	2.G/	ſe-	1re	.
.	.	.	.	4A\	-mi-	.	.
*Xlig	*	*Xlig	*	*	*	*	*
=61-	=61-	=61-	=61-	=61-	=61-	=61-	=61-
*lig	*	*lig	*	*	*	*	*
!	!	!	!	!LO:TX:t=P:problem=kreska pseudotaktowa	!	!	!
*	*	*	*	*	*	*lig	*
1F	-ne	1D	-ne	1B-	-ne	1f	ſi-
!LO:TX:t=P:problem=kreska pseudotaktowa	!	!	!	!	!	!	!
1E	.	1C	.	1r	.	1g	.
*Xlig	*	*Xlig	*	*	*	*Xlig	*
!	!	!LO:LB:g=original	!	!	!	!	!
=62-	=62-	=62-	=62-	=62-	=62-	=62-	=62-
*	*	*	*	*lig	*ij	*	*
2F\	ſe-	1rf	.	1B-	ſi-	1.f	-ne
2BB-/	-mi-	.	.	.	.	.	.
!LO:TX:t=P:problem=kreska pseudotaktowa	!	!	!	!	!	!	!
*	*	*lig	*	*	*	*	*
!	!	!	!	!LO:TX:t=P:problem=kreska pseudotaktowa	!	!	!
1FF	-ne	1F	lar-	1c	.	.	.
.	.	.	.	.	.	2e/	ſe-
*	*	*	*	*Xlig	*	*	*
=63-	=63-	=63-	=63-	=63-	=63-	=63-	=63-
1rBB	.	1G	.	1.B-	-ne	0d	-mi-
*	*	*Xlig	*	*	*	*	*
1BB-	lar-	1F	-gi-	.	.	.	.
.	.	.	.	2A/	ſe-	.	.
=64-	=64-	=64-	=64-	=64-	=64-	=64-	=64-
!LO:TX:t=P:problem=kreska pseudotaktowa	!	!LO:TX:t=P:problem=kreska pseudotaktowa	!	!	!	!	!
1C	-gi-	1E	-tus	1.G	-mi-	1c	-ne
0BB-	-tus	2.D/	eſt	.	.	0r	.
!	!	!	!	!LO:TX:t=P:problem=kreska pseudotaktowa	!	!	!
.	.	.	.	2F/	-ne	.	.
*	*	*	*	*	*Xij	*	*
.	.	4E/	.	.	.	.	.
=65-	=65-	=65-	=65-	=65-	=65-	=65-	=65-
*	*	*	*	*lig	*	*	*
.	.	2F/	no-	1B-	lar-	.	.
!	!	!LO:TX:t=P:problem=kreska pseudotaktowa	!	!	!	!	!
.	.	2D/	.	.	.	.	.
!	!	!	!	!	!	!LO:LB:g=original	!
*	*	*	*	*	*	*lig	*
!LO:TX:t=P:problem=kreska pseudotaktowa	!	!	!	!	!	!	!
1AA	eſt	2E/	.	1c	.	1c	lar-
.	.	1C/	.	.	.	.	.
*	*	*	*	*Xlig	*	*	*
=66-	=66-	=66-	=66-	=66-	=66-	=66-	=66-
1GG	no-	.	.	1B-	-gi-	1d	.
!	!	!LO:TX:t=P:problem=kreska pseudotaktowa	!	!	!	!	!
.	.	2BB-/	.	.	.	.	.
*	*	*	*	*	*	*Xlig	*
!LO:TX:t=P:problem=kreska pseudotaktowa	!	!	!	!	!	!	!
1FF	-bis	2C/	.	1A	-t(us)	1f	-gi-
.	.	2D/	.	.	.	.	.
=67-	=67-	=67-	=67-	=67-	=67-	=67-	=67-
2rAA	.	2E/	.	1G	eſt	1g	-tus
!	!	!LO:TX:t=P:problem=kreska pseudotaktowa	!	!	!	!	!
2C/	no-	2C/	-bis	.	.	.	.
!LO:LB:g=original	!	!	!	!LO:LB:g=original	!	!	!
*	*	*	*	*	*	*lig	*
2AA/	.	2rF	.	2F/	no-	1a	est
!LO:TX:t=P:problem=kreska pseudotaktowa	!	!	!	!	!	!	!
2FF/	.	1D/	no-	1F/	.	.	.
=68-	=68-	=68-	=68-	=68-	=68-	=68-	=68-
1GG	.	.	.	.	.	1g	.
!	!	!LO:TX:t=P:problem=kreska pseudotaktowa	!	!	!	!	!
.	.	2BB-/	.	2E/	.	.	.
*	*	*	*	*	*	*Xlig	*
!	!	!	!	!LO:TX:t=P:problem=kreska pseudotaktowa	!	!	!
1FF	.	1C	.	0F	-bis	1a	no-
=69-	=69-	=69-	=69-	=69-	=69-	=69-	=69-
!LO:TX:t=P:problem=kreska pseudotaktowa	!	!LO:TX:t=P:problem=kreska pseudotaktowa	!	!	!	!	!
1FF	-bis	1C	-bis	.	.	1a	-bis
2rFF	.	2rF	.	2r	.	2r	.
!LO:TX:t=P:problem=kreska pseudotaktowa	!	!	!	!	!	!	!
1FF/	ſu-	1F/	ſu-	1c\	Su-	1a\	ſu-
=70-	=70-	=70-	=70-	=70-	=70-	=70-	=70-
.	.	.	.	.	.	.	.
!	!	!LO:TX:t=P:problem=kreska pseudotaktowa	!	!LO:TX:t=P:problem=kreska pseudotaktowa	!	!	!
2BB-/	-am	2D/	-am	2d\	.	2f\	-am
!LO:TX:t=P:problem=kreska pseudotaktowa	!	!	!	!	!	!	!
2GG/	De-	2E/	De-	2B-\	-am	2g\	De-
2FF/	-i-	2F/	-i-	2A/	.	2a\	.
=71-	=71-	=71-	=71-	=71-	=71-	=71-	=71-
!LO:TX:t=P:problem=przekreślona synkopowana wartość	!	!	!	!	!	!	!
!	!LO:MO:mod=-ta-	!	!	!	!	!	!
1BB-	-ita-	2.B-\	-ta-	2.d\	De-	2.b-\	-i-
!	!	!LO:TX:t=P:problem=kreska pseudotaktowa	!	!LO:TX:t=P:problem=kreska pseudotaktowa	!	!	!
.	.	4c\	.	4c\	.	4a\	-ta-
!LO:TX:t=P:problem=przekreślona synkopowana wartość	!	!	!	!	!	!	!
1BB-	.	1d	.	2B-\	.	2g\	.
.	.	.	.	2A/	.	2f\	.
=72-	=72-	=72-	=72-	=72-	=72-	=72-	=72-
!LO:TX:t=P:problem=przekreślona synkopowana wartość	!	!	!	!LO:TX:t=P:problem=kreska pseudotaktowa	!	!	!
1C	.	2.c\	.	1G	.	1e	.
.	.	4B-\	.	.	.	.	.
!	!	!LO:LB:g=original	!	!	!	!	!
2D\	.	2A\	.	2F/	-i-	2f\	.
!	!	!LO:TX:t=P:problem=kreska pseudotaktowa	!	!	!	!	!
2E\	.	2G/	.	1c\	-ta-	1g\	.
=73-	=73-	=73-	=73-	=73-	=73-	=73-	=73-
2F\	.	2A\	.	.	.	.	.
!	!	!	!	!LO:TX:t=P:problem=kreska pseudotaktowa	!	!	!
2BB-/	.	2B-/	.	2d\	.	1f	.
1C	.	1G	.	1c	.	.	.
.	.	.	.	.	.	2e/	-tem
=74-	=74-	=74-	=74-	=74-	=74-	=74-	=74-
00FFl;;	-tem.	00Fl;;	-tem	00cl;;	-tem.	00fl;;	.
==	==	==	==	==	==	==	==
*-	*-	*-	*-	*-	*-	*-	*-
!!!system-decoration: [s1,s2,s3,s4]
!!!RDF**kern: l = terminal long
!!!ENC: Marta Lawrence
!!!END: 2021-03-26
!!!ENC: Anastazja Marusiak
!!!END: 2021-03-19
